widgets.svg

<svg fill="currentColor" viewBox="0 0 24 24"><path d="M3 3h8v4.34l5.66-5.65 5.65 5.65L16.66 13H21v8h-8v-8h3.66L11 7.34V11H3zm0 10h8v8H3z"/></svg>

<svg  viewBox="0 0 24 24" fill="currentColor"><path  d="M3,3H11V7.34L16.66,1.69L22.31,7.34L16.66,13H21V21H13V13H16.66L11,7.34V11H3V3M3,13H11V21H3V13Z"/></svg>
